X:10
T:17th of March 1/10, The
R:Jig
C:CD 1, track10
B:Scan Tester,"I Never Played To Many Posh Dances"
Z:Chris Partington, 2011 <www.cpartington.plus.com>
T:St.Patrick's Day
M:6/8
L:1/8
Q:3/8=110
K:C
G,|C>B,C CEF|G>AG GEC|DED EDC|A,B,A, A,2G,|
C>B,C CEF|G>AG GEC|DED EDC|A,2B, C2:|
G|GAB cde|GAB c2e|g>ag gec|fef d2e|
ged cde|ged c2e|g>ag gfe|fef +D.C.+d2|]





